icons/1_Primary/CoinTracking.svg

<svg width="1024" height="1024" viewBox="0 0 1024 1024" fill="none" xmlns="http://www.w3.org/2000/svg">
<g clip-path="url(#clip0_2_1875)">
<path d="M512 1024C794.77 1024 1024 794.77 1024 512C1024 229.23 794.77 0 512 0C229.23 0 0 229.23 0 512C0 794.77 229.23 1024 512 1024Z" fill="#9ABEFF"/>
<path d="M252.63 545.31C245.823 545.318 239.166 543.307 233.502 539.53C227.838 535.754 223.421 530.383 220.811 524.096C218.2 517.809 217.513 510.889 218.836 504.212C220.16 497.534 223.434 491.399 228.244 486.583C233.055 481.766 239.186 478.485 245.862 477.154C252.538 475.823 259.459 476.502 265.749 479.106C272.039 481.709 277.415 486.119 281.198 491.779C284.981 497.438 287 504.093 287 510.9C286.997 520.018 283.377 528.763 276.933 535.215C270.489 541.666 261.748 545.297 252.63 545.31ZM252.63 491.58C248.811 491.58 245.078 492.713 241.902 494.834C238.727 496.956 236.252 499.972 234.79 503.501C233.328 507.029 232.946 510.912 233.691 514.657C234.436 518.403 236.275 521.844 238.976 524.544C241.676 527.245 245.117 529.084 248.863 529.829C252.609 530.574 256.491 530.192 260.02 528.73C263.548 527.269 266.564 524.794 268.686 521.618C270.808 518.443 271.94 514.709 271.94 510.89C271.927 505.773 269.888 500.869 266.27 497.25C262.651 493.632 257.747 491.593 252.63 491.58ZM311.83 477.68H297V545.56H311.85L311.83 477.68ZM341.59 545.56H326.59V477.68H341.59V487.87C345.49 480.01 354.8 476.23 362.35 476.23C378.77 476.23 388.21 486.86 388.21 505.99V545.5H373.21V507.69C373.21 496.93 367.67 490.83 358.99 490.83C350.12 490.83 341.56 495.61 341.56 509.01L341.59 545.56ZM373.74 445.4H469.18V459.81H427.73V545.56H412V459.81H373.68V445.4H373.74ZM467.92 545.56H453V477.68H468V489.95C472.66 481.46 477.69 477.68 486.62 476.23C490.829 475.723 495.086 476.653 498.7 478.87L496.25 492.71C493.157 491.128 489.724 490.328 486.25 490.38C473.48 490.38 468.07 503.15 468.07 521.21L468.01 545.56H467.92ZM556.25 535.81C551.72 543.23 541.84 547.01 533.41 547.01C515.1 547.01 498.93 533.23 498.93 511.53C498.93 489.83 515.04 476.23 533.41 476.23C541.53 476.23 551.59 479.56 556.25 487.23V477.67H571.1V545.55H556.26L556.25 535.81ZM535.17 532.48C546.24 532.48 556.17 524.8 556.17 511.4C556.17 498 545.41 490.76 535.17 490.76C523.85 490.76 514.41 498.88 514.41 511.4C514.41 523.92 523.85 532.48 535.17 532.48ZM617.71 476.23C628.47 476.23 638.22 480.45 644.57 488L633 497.31C631.065 495.194 628.699 493.515 626.062 492.387C623.425 491.259 620.578 490.708 617.71 490.77C606.39 490.77 596.32 498.77 596.32 511.41C596.32 524.05 606.32 532.61 617.71 532.61C620.586 532.649 623.438 532.075 626.075 530.925C628.711 529.774 631.072 528.075 633 525.94L644.77 535.13C638.3 542.67 628.61 547 617.67 547C598.17 547 581.49 532.91 581.49 511.39C581.49 489.87 598.22 476.23 617.73 476.23H617.71ZM669.26 514V545.5H654.41V440.75H669.26V500L690.78 477.6H710.85L681.9 507.12L717.38 545.5H698.2L669.26 514ZM736.64 477.7H721.79V545.58H736.64V477.7ZM766.4 545.58H751.4V477.68H766.4V487.87C770.3 480.01 779.61 476.23 787.16 476.23C803.58 476.23 813.02 486.86 813.02 505.99V545.5H798V507.69C798 496.93 792.46 490.83 783.78 490.83C774.91 490.83 766.35 495.61 766.35 509.01L766.4 545.58ZM895.69 510.4C895.662 502.644 892.876 495.151 887.83 489.26L896 478.5L883.67 470.32L876.18 480.2C870.934 477.624 865.165 476.29 859.32 476.3C839.25 476.3 822.96 491.65 822.96 510.46C822.96 529.27 839.25 544.62 859.32 544.62C872.03 544.62 880.84 551.04 880.84 556.76C880.84 562.48 871.97 568.9 859.32 568.9C846.67 568.9 837.8 562.48 837.8 556.76H823C823 571.86 839 583.76 859.36 583.76C879.72 583.76 895.72 571.93 895.72 556.76C895.72 548.46 890.88 541.16 883.2 536.25C887.064 533.133 890.188 529.198 892.348 524.728C894.508 520.258 895.649 515.364 895.69 510.4ZM837.81 510.4C837.81 499.77 847.5 491.09 859.33 491.09C871.16 491.09 880.85 499.77 880.85 510.4C880.85 521.03 871.16 529.71 859.33 529.71C847.5 529.71 837.8 521 837.8 510.4H837.81ZM179.21 547.52C170.784 547.509 162.491 545.421 155.064 541.441C147.637 537.461 141.306 531.711 136.631 524.701C131.956 517.69 129.081 509.636 128.261 501.25C127.441 492.864 128.701 484.405 131.929 476.622C135.157 468.838 140.254 461.971 146.769 456.627C153.284 451.284 161.015 447.628 169.279 445.985C177.544 444.341 186.086 444.76 194.149 447.205C202.213 449.65 209.55 454.044 215.51 460L204.37 471.14C199.399 466.168 193.064 462.781 186.168 461.409C179.272 460.036 172.124 460.74 165.627 463.43C159.131 466.121 153.578 470.678 149.672 476.524C145.765 482.37 143.68 489.244 143.68 496.275C143.68 503.307 145.765 510.18 149.672 516.026C153.578 521.873 159.131 526.429 165.627 529.12C172.124 531.81 179.272 532.514 186.168 531.141C193.064 529.769 199.399 526.383 204.37 521.41L215.51 532.55C210.749 537.32 205.089 541.099 198.859 543.669C192.628 546.238 185.95 547.547 179.21 547.52ZM304.6 440.25C306.529 440.25 308.414 440.822 310.017 441.893C311.62 442.965 312.87 444.487 313.608 446.269C314.346 448.051 314.539 450.011 314.163 451.902C313.787 453.794 312.858 455.531 311.494 456.894C310.131 458.258 308.394 459.187 306.502 459.563C304.611 459.939 302.651 459.746 300.869 459.008C299.087 458.27 297.565 457.02 296.493 455.417C295.422 453.814 294.85 451.928 294.85 450C294.85 447.414 295.877 444.934 297.706 443.106C299.534 441.277 302.014 440.25 304.6 440.25ZM728.6 440.25C730.531 440.24 732.421 440.804 734.031 441.869C735.64 442.934 736.898 444.454 737.643 446.234C738.389 448.015 738.589 449.977 738.219 451.871C737.848 453.766 736.924 455.508 735.562 456.877C734.201 458.245 732.463 459.179 730.571 459.559C728.678 459.939 726.715 459.749 724.931 459.013C723.146 458.276 721.62 457.027 720.547 455.422C719.473 453.818 718.9 451.931 718.9 450C718.9 447.414 719.927 444.934 721.756 443.106C723.584 441.277 726.064 440.25 728.65 440.25H728.6Z" fill="white"/>
</g>
<defs>
<clipPath id="clip0_2_1875">
<rect width="1024" height="1024" fill="white"/>
</clipPath>
</defs>
</svg>

<svg xmlns="http://www.w3.org/2000/svg" viewBox="0 0 1024 1024">
   <circle cx="512" cy="512" r="512" style="fill:#008afb"/>
   <path d="M252.63 545.31A34.41 34.41 0 1 1 287 510.9a34.42 34.42 0 0 1-34.37 34.41zm0-53.73a19.31 19.31 0 1 0 19.31 19.31 19.36 19.36 0 0 0-19.31-19.31zm59.2-13.9H297v67.88h14.85zm29.76 67.88h-15v-67.88h15v10.19c3.9-7.86 13.21-11.64 20.76-11.64 16.42 0 25.86 10.63 25.86 29.76v39.51h-15v-37.81c0-10.76-5.54-16.86-14.22-16.86-8.87 0-17.43 4.78-17.43 18.18zm32.15-100.16h95.44v14.41h-41.45v85.75H412v-85.75h-38.32V445.4zm94.18 100.16H453v-67.88h15v12.27c4.66-8.49 9.69-12.27 18.62-13.72a18.8 18.8 0 0 1 12.08 2.64l-2.45 13.84a21.26 21.26 0 0 0-10-2.33c-12.77 0-18.18 12.77-18.18 30.83l-.06 24.35zm88.33-9.75c-4.53 7.42-14.41 11.2-22.84 11.2-18.31 0-34.48-13.78-34.48-35.48s16.11-35.3 34.48-35.3c8.12 0 18.18 3.33 22.84 11v-9.56h14.85v67.88h-14.84zm-21.08-3.33c11.07 0 21-7.68 21-21.08s-10.76-20.64-21-20.64c-11.32 0-20.76 8.12-20.76 20.64s9.44 21.08 20.76 21.08zm82.54-56.25c10.76 0 20.51 4.22 26.86 11.77L633 497.31a20.13 20.13 0 0 0-15.29-6.54c-11.32 0-21.39 8-21.39 20.64s10 21.2 21.39 21.2a20.23 20.23 0 0 0 15.29-6.67l11.77 9.19c-6.47 7.54-16.16 11.87-27.1 11.87-19.5 0-36.18-14.09-36.18-35.61s16.73-35.16 36.24-35.16zM669.26 514v31.5h-14.85V440.75h14.85V500l21.52-22.4h20.07l-28.95 29.52 35.48 38.38H698.2zm67.38-36.3h-14.85v67.88h14.85zm29.76 67.88h-15v-67.9h15v10.19c3.9-7.86 13.21-11.64 20.76-11.64 16.42 0 25.86 10.63 25.86 29.76v39.51H798v-37.81c0-10.76-5.54-16.86-14.22-16.86-8.87 0-17.43 4.78-17.43 18.18zm129.29-35.18a32.68 32.68 0 0 0-7.86-21.14L896 478.5l-12.33-8.18-7.49 9.88a38.1 38.1 0 0 0-16.86-3.9c-20.07 0-36.36 15.35-36.36 34.16s16.29 34.16 36.36 34.16c12.71 0 21.52 6.42 21.52 12.14s-8.87 12.14-21.52 12.14-21.52-6.42-21.52-12.14H823c0 15.1 16 27 36.36 27s36.36-11.83 36.36-27c0-8.3-4.84-15.6-12.52-20.51a33.57 33.57 0 0 0 12.49-25.85zm-57.88 0c0-10.63 9.69-19.31 21.52-19.31s21.52 8.68 21.52 19.31-9.69 19.31-21.52 19.31S837.8 521 837.8 510.4zm-658.6 37.12a51.26 51.26 0 1 1 36.3-87.52l-11.14 11.14a35.55 35.55 0 1 0 0 50.27l11.14 11.14a51 51 0 0 1-36.3 14.97zM304.6 440.25a9.75 9.75 0 1 1-9.75 9.75 9.75 9.75 0 0 1 9.75-9.75zm424 0a9.75 9.75 0 1 1-9.7 9.75 9.75 9.75 0 0 1 9.75-9.75z" style="fill:#fff"/>
</svg>
